X: 3958
T: Blackhaired Lass, The
R: reel
M: 4/4
K: Amixolydian
|:B|cAA2 cdec|d2gd BGGB|cA~A2 cdec|dfec A3:|
G|B/c/def ~g2eg|fddf gfed|B/c/def geag|fdec A2AG|
B/c/def gfeg|fddc defg|afg/f/e fdec|dfec A3||

